assets/bank-tab/Asset/now.svg

<svg width="52" height="20" viewBox="0 0 52 20" fill="none" xmlns="http://www.w3.org/2000/svg">
<path d="M0 4.64795V17.2677H4.51814V9.21133H9.03625V17.2677H13.4989V4.64795H0Z" fill="#1B4683"/>
<path d="M16.3263 3.26777C18.2112 1.35228 20.4841 0.394531 23.1451 0.394531C25.806 0.394531 28.079 1.35228 29.9638 3.26777C31.8487 5.18327 32.7911 7.49313 32.7911 10.1974C32.7911 12.9016 31.8487 15.2114 29.9638 17.1269C28.079 19.0424 25.806 20.0002 23.1451 20.0002C20.4841 20.0002 18.2112 19.0424 16.3263 17.1269C14.4414 15.2114 13.499 12.9016 13.499 10.1974C13.499 7.49313 14.4414 5.18326 16.3263 3.29594V3.26777ZM19.5139 13.8875C20.5118 14.9016 21.7314 15.4086 23.1451 15.4086C24.5587 15.4086 25.7783 14.9016 26.7762 13.8593C27.7741 12.8171 28.3007 11.6058 28.3007 10.1692C28.3007 8.73256 27.8018 7.5213 26.7762 6.47904C25.7783 5.46496 24.5587 4.95791 23.1451 4.95791C21.7314 4.95791 20.5118 5.46496 19.5139 6.47904C18.5161 7.49313 17.9894 8.73256 17.9894 10.1692C17.9894 11.6058 18.4884 12.8452 19.5139 13.8875Z" fill="#DE1F26"/>
<path d="M23.1725 13.4086L19.9849 10.1691L23.1725 6.92969L26.3601 10.1691L23.1725 13.4086Z" fill="#1B4683"/>
<path d="M27.0257 9.23951L24.9468 7.12684L27.0257 5.01416L29.1046 7.12684L27.0257 9.23951Z" fill="#1B4683"/>
<path d="M28.107 5.46475L26.4438 3.77461L28.107 2.08447L29.7701 3.77461L28.107 5.46475Z" fill="white"/>
<path d="M30.6571 3.40859L29.7979 2.53535L30.6571 1.66211L31.5164 2.53535L30.6571 3.40859Z" fill="#1B4683"/>
<path d="M31.1281 1.74648L30.2688 0.873241L31.1281 0L31.9873 0.873241L31.1281 1.74648Z" fill="#1B4683"/>
<path d="M42.1601 14.8451L37.8637 17.2677L32.2368 6.84513L36.1728 4.64795L39.2496 10.3381L42.1601 8.70429L45.0151 10.3099L48.0918 4.64795L52.0001 6.8733L46.3456 17.2958L42.1601 14.8451Z" fill="#1B4683"/>
<path d="M27.9961 8.33814L29.188 7.12687L27.026 4.92969L26.0835 5.88743C26.333 6.05645 26.5825 6.2818 26.8042 6.50715C27.3586 7.07053 27.7466 7.66209 27.9961 8.33814Z" fill="white"/>
</svg>

<svg xmlns="http://www.w3.org/2000/svg" width="52" height="20" fill="none" viewBox="0 0 52 20"><path fill="#1b4683" d="M0 4.648v12.62h4.518V9.21h4.518v8.057H13.5V4.648z"/><path fill="#de1f26" d="M16.326 3.268Q19.153.395 23.146.395q3.99 0 6.818 2.873 2.827 2.872 2.827 6.93 0 4.056-2.827 6.929T23.145 20q-3.99 0-6.819-2.873-2.827-2.873-2.827-6.93c0-2.704.942-5.014 2.827-6.901zm3.188 10.62c.998 1.014 2.217 1.52 3.631 1.52s2.633-.506 3.631-1.549 1.525-2.253 1.525-3.69-.5-2.648-1.525-3.69c-.998-1.014-2.217-1.521-3.63-1.521-1.415 0-2.634.507-3.632 1.521s-1.525 2.254-1.525 3.69c0 1.437.5 2.676 1.525 3.718"/><path fill="#1b4683" d="m23.173 13.409-3.188-3.24 3.188-3.24 3.187 3.24zm3.853-4.169-2.08-2.113 2.08-2.113 2.079 2.113z"/><path fill="#fff" d="m28.107 5.465-1.663-1.69 1.663-1.69 1.663 1.69z"/><path fill="#1b4683" d="m30.657 3.409-.86-.874.86-.873.86.873zm.471-1.663-.86-.873.86-.873.86.873zM42.16 14.845l-4.296 2.423-5.627-10.423 3.936-2.197 3.077 5.69 2.91-1.634 2.855 1.606 3.077-5.662L52 6.873l-5.654 10.423z"/><path fill="#fff" d="m27.996 8.338 1.192-1.211-2.162-2.197-.942.957c.249.17.498.395.72.62.555.564.943 1.155 1.192 1.831"/></svg>
